X:1
T:In the Desert of Sorrow and Sin
T:In the Desert of Sorrow and Sin
T:Frederick Augustus Fillmore
T:Henry Robert Trickett, 1887 
T:Public Domain Courtesy of the Cyber Hymnal™
T:Public Domain Courtesy of the Cyber Hymnal™
C:Frederick Augustus Fillmore
Z:Public Domain
Z:Courtesy of the Cyber Hymnal™
%%score ( 1 2 ) ( 3 4 )
L:1/8
Q:1/4=107
M:4/4
K:C
V:1 treble 
V:2 treble 
V:3 bass 
V:4 bass 
V:1
 C[CE] | [EG]2 [EG][EG] [FA][FA] [EG]2 | [CE]6 [EG][Ec] | [DB]2 [Dc][DB] | [FB]2 [FA][FB] | %5
w: 1.~In the|de- sert of sor- row and|sin, Lo! I|faint as I|jour- ney a-|
w: 2.~In my|weak- ness I turn to the|fount, From the|Rock that was|smit- ten for|
w: 3.~O Thou|God of com- pas- sion, I|pray, Let me|ev- er a-|bide in Thy|
 [Ec]6 C[CE] | [EG]2 [EG][EG] [FA][FA] [EG]2 | [CE]6 [CE][CE] | [B,D]2 [DG][DA] [GB]2 [GB]>[^FA] | %9
w: long; With the|war- fare with- out and with-|in, See my|strength and my hope near- ly|
w: me; And I|drink, and I joy- ful- ly|count All my|tri- als a bless- ing to|
w: sight; Let me|drink of the fount day by|day, Till I|join Thee in man- sions of|
 G6 ||"^Refrain" G2 | (z2 [FA])[FG] x6 | c6 [EG][EG] | [FA]2 [FA][FA] [Fc]2 [FB][FA] | G6 Gc | %15
w: gone.|I|* thirst,|let me drink,|Of the live- giv- ing stream|let me drink;|
w: be.||||||
w: light.||||||
 (z2 [FG])[Fd] x6 | c6 [EG][EG] | (AB)[Gc][Ad] [Ge] !fermata![Ge]2 [Fd] | [Ec]6 |] %19
w: * ’Tis|the Rock, cleft|for * me, ’Tis the wa- ter,|the|
w: ||||
w: ||||
V:2
 C x | x8 | x8 | x4 | x4 | x6 C x | x8 | x8 | x8 | G6 || x2 | (B6 F2 F2) | (E2 EE E2) x2 | x8 | %14
 (E2 EE E2) x2 | (B6 FF F2) | (E2 EE E2) x2 | F2 x6 | x6 |] %19
V:3
 [C,E,][C,G,] | [C,C]2 [C,C][C,C] [C,C][C,C] [C,C]2 | [C,G,]6 [C,G,][E,G,] | G,2 G,G, | G,2 G,G, | %5
w: ~ ~|~ ~ ~ ~ ~ ~|~ ~ ~|~ ~ ~|~ ~ ~|
 [C,G,]6 [C,E,][C,G,] | [C,C]2 [C,C][C,C] [C,C][C,C] [C,C]2 | [C,G,]6 [C,G,][C,G,] | %8
w: ~ ~ ~|~ ~ ~ ~ ~ ~|~ ~ ~|
 [D,G,]2 [D,B,][D,C] [D,D]2 [D,D]>[D,C] | [G,,G,B,]6 || z2 | z2 [G,D]2 [G,D]2 [G,C][G,B,] x2 | %12
w: ~ ~ ~ ~ ~ ~|~||I thirst, ~ ~|
 [C,C]2 [C,G,][C,G,] [C,G,]2 [C,C][C,C] | [F,C]2 [F,C][F,C] [F,A,]2 [F,B,][F,C] | %14
w: ~ let me drink ~ ~|~ ~ ~ ~ ~ ~|
 [C,C]2 [C,C][C,C] [C,C]2 z2 | z2 [G,D][G,D] [G,D]2 [G,B,][G,B,] x2 | %16
w: ~ let me drink;|’Tis the rock, ~ ~|
 [C,C]2 [C,G,][C,G,] [C,G,]2 [C,C][C,C] | ([F,C][D,D])[E,C][F,C] [G,C] !fermata![G,C]2 [G,,G,B,] | %18
w: ~ cleft for me * *||
 [C,C]6 |] %19
w: |
V:4
 x2 | x8 | x8 | G,2 G,G, | G,2 G,G, | x8 | x8 | x8 | x8 | x6 || x2 | x10 | x8 | x8 | x8 | x10 | %16
 x8 | x8 | x6 |] %19

